Origami/32x32/apps/boinc.svg

<svg width="32" height="32" version="1" xmlns="http://www.w3.org/2000/svg">
 <path d="m16 3c-7.756 0-14 6.244-14 14s6.244 14 14 14 14-6.244 14-14-6.244-14-14-14z" style="opacity:.2"/>
 <path d="m16 2c-7.756 0-14 6.244-14 14s6.244 14 14 14 14-6.244 14-14-6.244-14-14-14z" style="fill:#154277"/>
 <circle cx="16" cy="17" r="4" style="opacity:.2"/>
 <circle cx="16" cy="16" r="4" style="fill:#f5ca4a"/>
 <path d="M 24.257812 5.6972656 L 22.242188 9.1875 L 20.712891 11.835938 A 7 7 0 0 1 23 17 A 7 7 0 0 1 22.669922 19.119141 L 25.310547 20.644531 A 10 10 0 0 0 26 17 A 10 10 0 0 0 24.357422 11.523438 L 26.525391 7.7695312 C 25.848393 6.997511 25.088661 6.3041545 24.257812 5.6972656 z M 6.7695312 6.4746094 C 5.997511 7.1516074 5.3041545 7.9113389 4.6972656 8.7421875 L 8.1875 10.757812 L 10.835938 12.287109 A 7 7 0 0 1 16 10 A 7 7 0 0 1 18.119141 10.330078 L 19.644531 7.6894531 A 10 10 0 0 0 16 7 A 10 10 0 0 0 10.523438 8.6425781 L 6.7695312 6.4746094 z M 6.6894531 13.355469 A 10 10 0 0 0 6 17 A 10 10 0 0 0 7.6425781 22.476562 L 5.828125 25.619141 C 6.5280851 26.359355 7.2995608 27.030559 8.1464844 27.603516 L 9.7578125 24.8125 L 11.287109 22.164062 A 7 7 0 0 1 9 17 A 7 7 0 0 1 9.3300781 14.880859 L 6.6894531 13.355469 z M 21.164062 21.712891 A 7 7 0 0 1 16 24 A 7 7 0 0 1 13.880859 23.669922 L 12.355469 26.310547 A 10 10 0 0 0 16 27 A 10 10 0 0 0 21.476562 25.357422 L 24.513672 27.111328 C 25.344437 26.474905 26.10726 25.757368 26.775391 24.953125 L 23.8125 23.242188 L 21.164062 21.712891 z" style="opacity:.2"/>
 <path d="m24.257812 4.6972656l-2.015624 3.4902344-1.529297 2.648438a7 7 0 0 1 2.287109 5.164062 7 7 0 0 1 -0.330078 2.119141l2.640625 1.52539a10 10 0 0 0 0.689453 -3.644531 10 10 0 0 0 -1.642578 -5.476562l2.167969-3.7539068c-0.676998-0.7720202-1.43673-1.4653767-2.267579-2.0722656zm-17.488281 0.7773438c-0.7720202 0.676998-1.4653767 1.4367295-2.0722656 2.2675781l3.4902344 2.015625 2.648438 1.5292965a7 7 0 0 1 5.164062 -2.287109 7 7 0 0 1 2.119141 0.3300781l1.52539-2.640625a10 10 0 0 0 -3.644531 -0.6894531 10 10 0 0 0 -5.476562 1.6425781l-3.7539068-2.1679687zm-0.0800781 6.8808596a10 10 0 0 0 -0.6894531 3.644531 10 10 0 0 0 1.6425781 5.476562l-2.1679687 3.753907c0.676998 0.77202 1.4367295 1.465376 2.2675781 2.072265l2.015625-3.490234 1.5292965-2.648438a7 7 0 0 1 -2.287109 -5.164062 7 7 0 0 1 0.3300781 -2.119141l-2.640625-1.52539zm14.474609 8.357422a7 7 0 0 1 -5.164062 2.287109 7 7 0 0 1 -2.119141 -0.330078l-1.52539 2.640625a10 10 0 0 0 3.644531 0.689453 10 10 0 0 0 5.476562 -1.642578l3.753907 2.167969c0.77202-0.676998 1.465376-1.43673 2.072265-2.267579l-3.490234-2.015624-2.648438-1.529297z" style="fill:#5286fe"/>
 <path d="M 16 2 C 8.244 2 2 8.244 2 16 C 2 16.168842 2.0195214 16.33264 2.0253906 16.5 C 2.2891326 8.9794325 8.4128418 3 16 3 C 23.587158 3 29.710867 8.9794325 29.974609 16.5 C 29.980479 16.33264 30 16.168842 30 16 C 30 8.244 23.756 2 16 2 z" style="fill:#ffffff;opacity:.1"/>
</svg>

<svg xmlns="http://www.w3.org/2000/svg" width="32" height="32" version="1">
 <path style="opacity:0.2" d="M 16,3 C 8.244,3 2,9.244 2,17 2,24.756 8.244,31 16,31 23.756,31 30,24.756 30,17 30,9.244 23.756,3 16,3 Z"/>
 <path style="fill:#154277" d="M 16,2 C 8.244,2 2,8.244 2,16 2,23.756 8.244,30 16,30 23.756,30 30,23.756 30,16 30,8.244 23.756,2 16,2 Z"/>
 <circle style="opacity:0.2" cx="16" cy="17" r="4"/>
 <circle style="fill:#f5ca4a" cx="16" cy="16" r="4"/>
 <path style="opacity:0.2" d="M 24.257812 5.6972656 L 22.242188 9.1875 L 20.712891 11.835938 A 7 7 0 0 1 23 17 A 7 7 0 0 1 22.669922 19.119141 L 25.310547 20.644531 A 10 10 0 0 0 26 17 A 10 10 0 0 0 24.357422 11.523438 L 26.525391 7.7695312 C 25.848393 6.997511 25.088661 6.3041545 24.257812 5.6972656 z M 6.7695312 6.4746094 C 5.997511 7.1516074 5.3041545 7.9113389 4.6972656 8.7421875 L 8.1875 10.757812 L 10.835938 12.287109 A 7 7 0 0 1 16 10 A 7 7 0 0 1 18.119141 10.330078 L 19.644531 7.6894531 A 10 10 0 0 0 16 7 A 10 10 0 0 0 10.523438 8.6425781 L 6.7695312 6.4746094 z M 6.6894531 13.355469 A 10 10 0 0 0 6 17 A 10 10 0 0 0 7.6425781 22.476562 L 5.828125 25.619141 C 6.5280851 26.359355 7.2995608 27.030559 8.1464844 27.603516 L 9.7578125 24.8125 L 11.287109 22.164062 A 7 7 0 0 1 9 17 A 7 7 0 0 1 9.3300781 14.880859 L 6.6894531 13.355469 z M 21.164062 21.712891 A 7 7 0 0 1 16 24 A 7 7 0 0 1 13.880859 23.669922 L 12.355469 26.310547 A 10 10 0 0 0 16 27 A 10 10 0 0 0 21.476562 25.357422 L 24.513672 27.111328 C 25.344437 26.474905 26.10726 25.757368 26.775391 24.953125 L 23.8125 23.242188 L 21.164062 21.712891 z"/>
 <path style="fill:#5286fe" d="M 24.257812 4.6972656 L 22.242188 8.1875 L 20.712891 10.835938 A 7 7 0 0 1 23 16 A 7 7 0 0 1 22.669922 18.119141 L 25.310547 19.644531 A 10 10 0 0 0 26 16 A 10 10 0 0 0 24.357422 10.523438 L 26.525391 6.7695312 C 25.848393 5.997511 25.088661 5.3041545 24.257812 4.6972656 z M 6.7695312 5.4746094 C 5.997511 6.1516074 5.3041545 6.9113389 4.6972656 7.7421875 L 8.1875 9.7578125 L 10.835938 11.287109 A 7 7 0 0 1 16 9 A 7 7 0 0 1 18.119141 9.3300781 L 19.644531 6.6894531 A 10 10 0 0 0 16 6 A 10 10 0 0 0 10.523438 7.6425781 L 6.7695312 5.4746094 z M 6.6894531 12.355469 A 10 10 0 0 0 6 16 A 10 10 0 0 0 7.6425781 21.476562 L 5.4746094 25.230469 C 6.1516074 26.002489 6.9113389 26.695845 7.7421875 27.302734 L 9.7578125 23.8125 L 11.287109 21.164062 A 7 7 0 0 1 9 16 A 7 7 0 0 1 9.3300781 13.880859 L 6.6894531 12.355469 z M 21.164062 20.712891 A 7 7 0 0 1 16 23 A 7 7 0 0 1 13.880859 22.669922 L 12.355469 25.310547 A 10 10 0 0 0 16 26 A 10 10 0 0 0 21.476562 24.357422 L 25.230469 26.525391 C 26.002489 25.848393 26.695845 25.088661 27.302734 24.257812 L 23.8125 22.242188 L 21.164062 20.712891 z"/>
 <path style="fill:#ffffff;opacity:0.1" d="M 16 2 C 8.244 2 2 8.244 2 16 C 2 16.168842 2.0195214 16.33264 2.0253906 16.5 C 2.2891326 8.9794325 8.4128418 3 16 3 C 23.587158 3 29.710867 8.9794325 29.974609 16.5 C 29.980479 16.33264 30 16.168842 30 16 C 30 8.244 23.756 2 16 2 z"/>
</svg>
